public/reposted.svg

<svg width="16" height="21" fill="none" xmlns="http://www.w3.org/2000/svg"><defs><clipPath id="a"><path fill="#fff" fill-opacity="0" d="M0 0h16v20.807H0z"/></clipPath></defs><g clip-path="url(#a)"><path d="m3.16 3.28 3.07 3.73-1.14 1.58L4 7.26v6.39c0 .84.52 1.52 1.16 1.52h3.5v2.16h-3.5c-1.56 0-2.83-1.64-2.83-3.68V7.26l-1.1 1.33L.09 7.01l3.07-3.73zm7.67 2.35h-3.5V3.46h3.5c1.56 0 2.83 1.65 2.83 3.69v6.39l1.1-1.33 1.14 1.58-3.07 3.73-3.07-3.73 1.14-1.58 1.1 1.33V7.15c0-.84-.53-1.52-1.17-1.52z" fill="#536471"/></g></svg>

<svg width="16.000000" height="21.000000" viewBox="0 0 16 21" fill="none" xmlns="http://www.w3.org/2000/svg" xmlns:xlink="http://www.w3.org/1999/xlink">
	<desc>
			Created with Pixso.
	</desc>
	<defs>
		<clipPath id="clip9_178">
			<rect id="svg" width="16.000000" height="20.807453" fill="white" fill-opacity="0"/>
		</clipPath>
	</defs>
	<g clip-path="url(#clip9_178)">
		<path id="path" d="M3.16 3.28L6.23 7.01L5.09 8.59L4 7.26L4 13.65C4 14.49 4.52 15.17 5.16 15.17L8.66 15.17L8.66 17.33L5.16 17.33C3.6 17.33 2.33 15.69 2.33 13.65L2.33 7.26L1.23 8.59L0.09 7.01L3.16 3.28ZM10.83 5.63L7.33 5.63L7.33 3.46L10.83 3.46C12.39 3.46 13.66 5.11 13.66 7.15L13.66 13.54L14.76 12.21L15.9 13.79L12.83 17.52L9.76 13.79L10.9 12.21L12 13.54L12 7.15C12 6.31 11.47 5.63 10.83 5.63Z" fill="#536471" fill-opacity="1.000000" fill-rule="nonzero"/>
	</g>
</svg>
